X:301
T: Des Soldaten Heimkehr (52), S.166
N: T0190
O: Luxemburg
S: Singendes Volk, Esch-Alzette 1937 posth.]
N: Rammeldingen, ? N. Birnbaum, 25.2.1934
R: Liebeslieder]
M: 6/8
L: 1/16
K: G
DD | G4G2B2A2G2 | A4d2d4c2 | B6z4
DD | G4G2B2A2G2 | A4d2d4c2 | B6z4
d2 | e4c2c2c2e2 | d2c2c2B4
BB | A2A2A2A2B2c2 | e2d2d2e4dc | B6z4

